static/logos/togglHire-glyph-color.svg

<svg width="50" height="34" viewBox="0 0 50 34" fill="none" xmlns="http://www.w3.org/2000/svg">
<g clip-path="url(#clip0_1_701)">
<path d="M26.4037 6.77105C26.6148 6.55767 26.9025 6.46625 27.1894 6.46625C27.4763 6.46625 27.7645 6.55767 27.9742 6.77105C28.179 6.97853 28.2751 7.26913 28.2751 7.5657C28.2751 7.86363 28.179 8.15287 27.9742 8.36171C27.7631 8.57509 27.4763 8.66651 27.1894 8.66651C26.9025 8.66651 26.6148 8.57509 26.4037 8.36171C26.199 8.15423 26.1028 7.86363 26.1028 7.5657C26.1028 7.26913 26.199 6.97853 26.4037 6.7706V6.77105ZM32.6275 16.5073C32.5996 15.6555 32.351 14.7531 31.7192 14.1586C31.0128 13.4946 29.9908 13.1898 29.0422 13.1898H24.8098C24.3916 13.1898 24.0218 12.8718 24.0218 12.4793C24.0218 12.1494 24.2442 11.8729 24.545 11.792C24.5441 11.792 24.6163 11.7733 24.6947 11.7482C25.4525 12.1174 26.3072 12.2832 27.1605 12.2832C28.4663 12.2832 29.7743 11.8953 30.7318 10.9878C31.6641 10.1054 32.1007 8.87075 32.1007 7.60726C32.1007 6.34383 31.665 5.10913 30.7318 4.22538C30.4597 3.96873 30.1564 3.74823 29.8293 3.5692C30.7282 3.78031 31.656 3.51848 32.2938 2.40307L30.4942 1.09344L28.9931 3.21004C28.3995 3.02106 27.7805 2.92656 27.1583 2.92993C25.853 2.92993 24.545 3.31788 23.5874 4.22538C22.6552 5.10777 22.2186 6.34287 22.2186 7.60681C22.2186 8.87075 22.6543 10.1054 23.5874 10.9883C23.6682 11.065 23.7525 11.1372 23.8378 11.2076C23.7453 11.2574 23.6632 11.3013 23.6619 11.3013C23.3182 11.4969 22.8965 11.8085 22.4797 12.2586C21.8884 12.8965 21.2971 13.8515 21.2971 15.1218C21.2971 15.1218 21.215 17.8325 24.2888 17.8325H26.5142C27.0275 17.8325 27.5484 18.1624 27.5484 18.6819C27.5484 18.8706 27.4934 19.0447 27.3996 19.1919H31.6578C32.3028 18.4672 32.6591 17.4372 32.6275 16.5073ZM37.2087 6.77105C37.4193 6.55767 37.7075 6.46625 37.9935 6.46625C38.2799 6.46625 38.5681 6.55767 38.7788 6.77105C38.9835 6.97853 39.0796 7.26913 39.0796 7.5657C39.0796 7.86363 38.9835 8.15287 38.7788 8.36171C38.5681 8.57509 38.2799 8.66651 37.993 8.66651C37.7062 8.66651 37.4184 8.57509 37.2082 8.36171C37.0039 8.15423 36.9078 7.86363 36.9078 7.5657C36.9078 7.26913 37.0039 6.97853 37.2087 6.7706V6.77105ZM44.75 16.5073C44.722 15.6555 44.474 14.7531 43.8416 14.1586C43.1357 13.4946 42.1132 13.1898 41.1652 13.1898L36.252 13.1542C35.9417 13.1542 35.7054 12.9573 35.7054 12.6652C35.7054 12.4258 35.8235 12.0685 36.1199 12.0095C36.7004 12.1969 37.3188 12.2837 37.9358 12.2837C39.2415 12.2837 40.5491 11.8953 41.507 10.9878C42.4389 10.1054 42.8746 8.87075 42.8746 7.60726C42.8746 6.34383 42.4389 5.10913 41.507 4.22538C41.2348 3.9687 40.9313 3.7482 40.6041 3.5692C41.5034 3.78031 42.4308 3.51848 43.069 2.40307L41.2694 1.09344L39.7683 3.21004C39.1747 3.02106 38.5557 2.92656 37.9335 2.92993C36.6277 2.92993 35.3202 3.31788 34.3622 4.22538C33.429 5.10777 32.9933 6.34287 32.9933 7.60681C32.9933 8.87075 33.429 10.1054 34.3622 10.9883C34.636 11.2462 34.9415 11.4674 35.271 11.6463C35.0554 11.8126 34.8281 12.0155 34.6021 12.2586C34.0113 12.8965 33.4196 13.8515 33.4196 15.1218C33.4196 15.1218 33.3379 17.8325 36.4113 17.8325H38.6384C39.1513 17.8325 39.6722 18.1624 39.6722 18.6819C39.6722 18.8706 39.6172 19.0447 39.5234 19.1919H43.782C44.4257 18.4672 44.782 17.4372 44.7504 16.5073H44.75Z" fill="#FF8A7A"/>
<path d="M49.9033 15.1159V11.0687C48.9869 11.1862 48.6671 10.5313 48.6671 9.88111V0H44.1184V10.6191C44.1184 11.9383 44.3114 13.0377 44.781 13.7295C45.5022 14.7828 46.4786 15.4732 48.4199 15.4801C48.7794 15.4664 49.3766 15.3933 49.9033 15.1159ZM16.3685 10.1945C16.097 10.4696 15.7248 10.5884 15.3545 10.5884C14.9838 10.5884 14.6126 10.4696 14.3407 10.1945C14.0763 9.92631 13.9519 9.55025 13.9519 9.16732C13.9519 8.78303 14.0763 8.40788 14.3407 8.13965C14.6126 7.8646 14.9847 7.74621 15.3545 7.74621C15.7258 7.74621 16.097 7.86364 16.3685 8.13965C16.6332 8.40788 16.7573 8.78394 16.7573 9.16687C16.7573 9.55162 16.6328 9.92631 16.3685 10.1945ZM19.7585 4.69517C18.584 3.48059 16.9801 2.96058 15.3789 2.96058C13.7786 2.96058 12.1747 3.48059 11.0003 4.69517C9.85647 5.87778 9.32243 7.5301 9.32243 9.22172C9.32243 10.9133 9.85647 12.5657 11.0003 13.7483C12.1747 14.9619 13.7786 15.4824 15.3794 15.4824C16.9801 15.4824 18.584 14.9628 19.7585 13.7483C20.901 12.5671 21.4363 10.9133 21.4363 9.22172C21.435 7.5301 20.901 5.87682 19.7585 4.69517ZM7.68202 11.0856C6.92566 11.0856 6.6153 10.8503 6.33566 10.4911C6.15525 10.2563 6.06369 9.91081 6.06369 9.46252V7.36788H8.60258V3.61265H6.06505V0H2.81941V1.3512C2.81941 2.84817 1.69409 4.06046 0.305802 4.06046C0.201613 4.06046 0.0996788 4.05315 0 4.04035V7.36879H1.70356V10.7136C1.70356 12.0306 1.9381 13.045 2.40627 13.7355C3.12973 14.7924 3.93302 15.4838 5.89187 15.4838C7.02758 15.4838 7.9797 15.2192 8.60258 14.8669V10.9303C8.36803 11.023 8.05051 11.0856 7.68202 11.0856Z" fill="#FF8A7A"/>
<path d="M2.54747 23.8144C1.9601 24.2691 1.51364 24.8585 1.2096 25.5819V19.3532H0V33.4181H1.21061V28.7768C1.20808 28.1998 1.26465 27.624 1.37929 27.0587C1.49192 26.5168 1.67677 26.0375 1.93434 25.6226C2.19091 25.2081 2.5495 24.8686 2.97525 24.6378C3.41162 24.397 3.94697 24.2759 4.58182 24.2759C5.48081 24.2759 6.15758 24.5679 6.61414 25.1501C7.0697 25.7327 7.29798 26.5063 7.29798 27.4704V33.4195H8.54748V27.5523C8.54748 26.2262 8.23939 25.1574 7.62424 24.3467C7.0101 23.537 6.06768 23.1313 4.79849 23.1313C3.88636 23.1313 3.13586 23.3588 2.54747 23.8144Z" fill="#FF8A7A"/>
<path d="M10.4531 33.4172H11.6627V23.3702H10.4531V33.4172Z" fill="#FF8A7A"/>
<path d="M11.0644 19.1919C10.7462 19.1919 10.4826 19.2984 10.271 19.5131C10.0588 19.7279 9.95329 19.9961 9.95329 20.3173C9.95076 20.4645 9.97803 20.6106 10.0326 20.7469C10.0871 20.8833 10.1679 21.0071 10.271 21.1111C10.4826 21.3318 10.7477 21.4419 11.0644 21.4419C11.2104 21.4439 11.3553 21.4155 11.4902 21.3587C11.625 21.3017 11.7467 21.2175 11.8482 21.1111C12.0669 20.8904 12.176 20.6258 12.176 20.3173C12.176 19.9961 12.0659 19.7279 11.8482 19.5131C11.6301 19.2984 11.3689 19.1919 11.0644 19.1919Z" fill="#FF8A7A"/>
<path d="M18.2843 23.1299C17.5303 23.1299 16.8894 23.3378 16.3606 23.7527C15.8313 24.1681 15.4343 24.8055 15.1697 25.6619V23.3712H14V33.4168H15.2096V28.7764C15.2066 28.2036 15.2566 27.6318 15.3586 27.0683C15.4576 26.5319 15.6263 26.0699 15.8641 25.6815C16.0975 25.2987 16.4212 24.9811 16.8066 24.7576C17.1965 24.53 17.6823 24.4157 18.2646 24.4157C18.4232 24.416 18.5823 24.4229 18.7409 24.4363C18.9141 24.4524 19.0864 24.4792 19.2561 24.5168V23.2309C18.8859 23.1633 18.5616 23.1299 18.2843 23.1299Z" fill="#FF8A7A"/>
<path fill-rule="evenodd" clip-rule="evenodd" d="M20.0433 26.3555C20.2751 25.7053 20.6019 25.1433 21.0246 24.6675C21.4473 24.1919 21.96 23.8167 22.5615 23.5416C23.164 23.2666 23.8347 23.1304 24.5746 23.1304C25.3544 23.1304 26.0393 23.2675 26.6271 23.5416C27.216 23.8167 27.7044 24.1882 28.0943 24.6566C28.4842 25.1254 28.7756 25.671 28.9665 26.2939C29.1584 26.9167 29.2544 27.576 29.2544 28.2724V28.6344H20.9251L20.9049 28.7742C20.918 29.3769 21.0266 29.9092 21.2332 30.3721C21.4377 30.8346 21.7084 31.2225 22.0458 31.5369C22.3877 31.8548 22.7887 32.1006 23.2256 32.2602C23.6751 32.4279 24.1579 32.5116 24.6731 32.5116C25.4271 32.5116 26.0741 32.3612 26.6165 32.0601C27.1584 31.7585 27.6216 31.3929 28.0054 30.9653L28.6398 31.9294C28.217 32.3717 27.6877 32.7702 27.0529 33.1253C26.4185 33.4799 25.6448 33.658 24.7327 33.658C23.9781 33.658 23.2948 33.5347 22.6802 33.2865C22.0655 33.0385 21.5362 32.6911 21.0938 32.2415C20.6509 31.7932 20.3069 31.2476 20.062 30.6047C19.817 29.9613 19.6953 29.2448 19.6953 28.4552C19.6953 27.704 19.8115 27.0044 20.0433 26.3555ZM27.0145 25.2497C27.2963 25.5587 27.515 25.9208 27.6589 26.3153C27.811 26.7234 27.8999 27.1694 27.9266 27.6519H20.966C21.0852 26.6471 21.4519 25.8337 22.0665 25.2109C22.6827 24.588 23.5241 24.2759 24.5958 24.2759C25.1236 24.2759 25.5908 24.3627 25.9938 24.5369C26.3963 24.7114 26.7372 24.9481 27.0145 25.2497Z" fill="#FF8A7A"/>
</g>
<defs>
<clipPath id="clip0_1_701">
<rect width="50" height="33.8384" fill="white"/>
</clipPath>
</defs>
</svg>

<svg xmlns="http://www.w3.org/2000/svg" width="94.118" height="64" fill="none" viewBox="0 0 50 34"><g fill="#FF8A7A" clip-path="url(#a)"><path d="M26.404 6.771c.21-.213.498-.305.785-.305.287 0 .576.092.785.305.205.208.301.498.301.795 0 .298-.096.587-.3.796a1.086 1.086 0 0 1-.786.305c-.287 0-.574-.092-.785-.305a1.122 1.122 0 0 1-.301-.796c0-.297.096-.587.3-.795Zm6.223 9.736c-.027-.852-.276-1.754-.908-2.348-.706-.664-1.728-.97-2.677-.97H24.81c-.418 0-.788-.317-.788-.71a.71.71 0 0 1 .523-.687s.071-.019.15-.044c.758.37 1.612.535 2.465.535 1.306 0 2.614-.388 3.572-1.295.932-.883 1.369-2.117 1.369-3.38 0-1.264-.436-2.499-1.37-3.383a4.38 4.38 0 0 0-.902-.656c.9.211 1.827-.05 2.465-1.166l-1.8-1.31-1.5 2.117a5.942 5.942 0 0 0-1.836-.28c-1.305 0-2.613.388-3.57 1.295-.933.883-1.37 2.118-1.37 3.382 0 1.264.436 2.498 1.37 3.381.08.077.165.15.25.22l-.176.093a5.053 5.053 0 0 0-1.182.958c-.592.637-1.183 1.592-1.183 2.863 0 0-.082 2.71 2.992 2.71h2.225c.514 0 1.034.33 1.034.85a.944.944 0 0 1-.148.51h4.258a3.978 3.978 0 0 0 .97-2.685Zm4.582-9.736c.21-.213.498-.305.784-.305.287 0 .575.092.786.305.204.208.3.498.3.795 0 .298-.096.587-.3.796-.21.213-.5.305-.786.305-.287 0-.575-.092-.785-.305a1.123 1.123 0 0 1-.3-.796c0-.297.096-.587.3-.795Zm7.541 9.736c-.028-.852-.276-1.754-.908-2.348-.706-.664-1.729-.97-2.677-.97l-4.913-.035c-.31 0-.547-.197-.547-.489 0-.24.119-.596.415-.655a5.93 5.93 0 0 0 1.816.274c1.306 0 2.613-.389 3.571-1.296.932-.883 1.368-2.117 1.368-3.38 0-1.264-.436-2.499-1.368-3.383a4.381 4.381 0 0 0-.903-.656c.9.211 1.827-.05 2.465-1.166l-1.8-1.31-1.5 2.117a5.942 5.942 0 0 0-1.835-.28c-1.306 0-2.614.388-3.572 1.295-.933.883-1.369 2.118-1.369 3.382 0 1.264.436 2.498 1.37 3.381.273.258.578.48.908.658a5.52 5.52 0 0 0-.669.613c-.59.637-1.182 1.592-1.182 2.863 0 0-.082 2.71 2.991 2.71h2.227c.513 0 1.034.33 1.034.85a.944.944 0 0 1-.149.51h4.259c.644-.725 1-1.755.968-2.685Z"/><path d="M49.903 15.116v-4.047c-.916.117-1.236-.538-1.236-1.188V0h-4.549v10.62c0 1.318.193 2.418.663 3.11.721 1.053 1.698 1.743 3.639 1.75.36-.014.957-.087 1.483-.364Zm-33.535-4.921c-.271.275-.643.393-1.013.393-.371 0-.742-.118-1.014-.393-.265-.269-.39-.645-.39-1.028 0-.384.125-.76.39-1.027.272-.275.644-.394 1.014-.394s.742.118 1.014.394c.264.268.388.644.388 1.027 0 .385-.124.76-.389 1.027Zm3.39-5.5c-1.174-1.214-2.778-1.734-4.38-1.734-1.6 0-3.203.52-4.378 1.734C9.856 5.878 9.322 7.53 9.322 9.222c0 1.691.534 3.344 1.678 4.526 1.175 1.214 2.779 1.734 4.38 1.734 1.6 0 3.204-.52 4.379-1.734 1.142-1.18 1.677-2.835 1.677-4.526-.001-1.692-.535-3.345-1.677-4.527Zm-12.076 6.39c-.756 0-1.067-.235-1.346-.594-.18-.235-.272-.58-.272-1.028V7.368h2.539V3.613H6.065V0H2.82v1.351c0 1.497-1.125 2.71-2.513 2.71C.202 4.06.1 4.052 0 4.04v3.328h1.704v3.345c0 1.317.234 2.331.702 3.021.724 1.057 1.527 1.749 3.486 1.749 1.136 0 2.088-.265 2.71-.617V10.93a2.555 2.555 0 0 1-.92.156ZM2.547 23.814a4.293 4.293 0 0 0-1.337 1.768v-6.229H0v14.065h1.21v-4.641a8.459 8.459 0 0 1 .17-1.718 4.395 4.395 0 0 1 .554-1.436 2.788 2.788 0 0 1 1.041-.985c.437-.241.972-.362 1.607-.362.899 0 1.576.292 2.032.874.456.583.684 1.356.684 2.32v5.95h1.25v-5.868c0-1.326-.309-2.395-.924-3.205-.614-.81-1.556-1.216-2.826-1.216-.912 0-1.662.228-2.25.683ZM10.453 33.417h1.21V23.37h-1.21v10.047ZM11.064 19.192c-.318 0-.581.106-.793.321a1.098 1.098 0 0 0-.318.804 1.105 1.105 0 0 0 .318.794c.212.22.477.33.793.33a1.06 1.06 0 0 0 .784-.33c.219-.22.328-.485.328-.794 0-.32-.11-.59-.328-.804a1.077 1.077 0 0 0-.784-.321ZM18.284 23.13c-.754 0-1.395.208-1.923.623-.53.415-.927 1.052-1.191 1.909v-2.29H14v10.045h1.21v-4.64a9.316 9.316 0 0 1 .149-1.709c.099-.536.267-.998.505-1.387.233-.382.557-.7.943-.923.39-.228.875-.342 1.458-.342.158 0 .317.007.476.02.173.016.345.043.515.08v-1.285a5.5 5.5 0 0 0-.972-.101Z"/><path fill-rule="evenodd" d="M20.043 26.355c.232-.65.559-1.212.982-1.688.422-.475.935-.85 1.537-1.125.602-.275 1.273-.412 2.013-.412.78 0 1.464.137 2.052.412a4.177 4.177 0 0 1 1.467 1.115 4.67 4.67 0 0 1 .872 1.637c.192.623.288 1.282.288 1.978v.362h-8.329l-.02.14c.013.603.122 1.135.328 1.598.205.463.475.85.813 1.165.342.318.743.564 1.18.723.45.168.932.252 1.447.252.754 0 1.401-.15 1.944-.452a5.332 5.332 0 0 0 1.388-1.095l.635.964c-.423.443-.952.841-1.587 1.196-.634.355-1.408.533-2.32.533-.755 0-1.438-.123-2.053-.372a4.62 4.62 0 0 1-1.586-1.044 4.649 4.649 0 0 1-1.032-1.637c-.245-.644-.367-1.36-.367-2.15 0-.751.116-1.45.348-2.1Zm6.972-1.105c.281.309.5.67.644 1.065.152.408.24.854.268 1.337h-6.961c.12-1.005.486-1.818 1.1-2.441.617-.623 1.458-.935 2.53-.935.528 0 .995.087 1.398.26a2.97 2.97 0 0 1 1.02.714Z" clip-rule="evenodd"/></g><defs><clipPath id="a"><path fill="#fff" d="M0 0h50v33.838H0z"/></clipPath></defs></svg>
